!!!OTL: Was braucht man auf dem Bauerndorf? (222), S. 479
!!!id: T0405
**kern
*clefG2
*k[]
*C:
{8g
=1
8cc
8g
8g
8g
=2
8a
8g
8g}
=3
{8b
=4
8cc
8cc
8a
8b
=5
4cc}
8r
=6
{8b
=7
8b
8a
8b
8cc
=8
4dd}
8r
=9
{8b
=10
8b
8a
8b
8cc
=11
4dd}
8r
=12
{8b
=13
8b
8a
8b
8cc
=14
8dd
8dd}
=15
{8ee
8ee
=16
8dd
8cc
8b
8a
=17
8a
8g
8g}
=18
{8g
=19
8g
8g
8g
8g
=20
8ee
8cc
8cc}
=21
{8cc
=22
8dd
8dd
8b
8b
=23
4cc}
8r
==
*-
!!!minrhy: 8
!!!meters: 2/4 ]  ZZ[8
!!!cut: Was braucht man auf dem Bauerndorf? (222), S. 479
!!!reg: Luxemburg
!!!trd: Singendes Volk, Esch-Alzette, 1937 posth.
!!!rhy1: X  XXXX  XXX
!!!rhy2: X  XXXX  X_0
!!!key: T0405  08  C 2/4 ]  ZZ[8
!!!mod: SECHSTONSKALA DUR ?]  AMBITUS[6
!!!kad: 5+1+2+2+25+1+1
!!!akz: +16_+1+1_7+2_7+2_7+2_+26_5+3_+2+1_
!!!fot: 'a__b__c__c__c__d__e__f__
!!!for: 'a__aw_aw_aw_aw_av_a__aw_
!!!fok: '^__/__/__/__/__\__^a_-__
!! PHRAS[AUFTAKTIG]
!!!fkt: Berufslied
!!!bem: StraPen, fff Witry, 14.2.1933
!! THILL; Mathias
!! PR[12] 2K[7] 2G[18] 3K[3] 3G[5] 4A[11] 4Ü[0] 5A[1] 6K[0] 6G[0]
!! 7K[0] 7G[0] 8A[0] MEHR[0] SI[45] ABS[73] SR[25] SP[21]
!! ST[24] 2k[8] 2g[15] 3k[4] 3g[7] 4d[5] 4ü[0] 5d[3] 6k[0] 6g[0]
!! 7k[0] 7g[0] 8d[0] mehr[0] si[42] dm[+3] sr[23] sp[19]
!! 1F[5] 2F[73] 3F[23] 4F[0] LF[0] 2P[0] 3P[0] 4P[0] TRI[0] DF[3] AB[80]
!! TF[0] U3K[0] U3[0] U4[0] U4Ü[0] U5[8] U6K[0] U6[8] U7K[0] U7[8]
!! N1[23] N2K[0] N2[11] N3K[0] N3[12] N4[15] N4Ü[0] N5[12] N6K[0] N6[3]
!!!n7k: 0] N7[0] O1[0] O2K[0] O2[0] O3K[0] O3[0] HÖ[0
